X: 1
T: Morpeth Rant
S: John Bell (c.1812)
M: 4/4
L: 1/8
R: rant
K: Gmaj
F|G2DC B,G,B,D|ECEG FDFA|BGcA dBAG|F2A2 A2BA|
G2DC B,G,B,D|ECEG FDFA|BGcA dBAG|D2G2 G2:|
|:df|gdBG EGce|dBAG GFED|cecA BdBG|F2D2 D2GF|
ECEG cBAG|FDFA dcBA|Bgfe dcBA|B2G2 G2:|
